symbols/web/looks_6/materialsymbolssharp/looks_6_grad200_48px.svg

<svg xmlns="http://www.w3.org/2000/svg" height="48" width="48"><path d="M21.55 22.05V17.1h6.4v-3.65H17.9v21.1h12.2v-12.5Zm0 3.65h4.9v5.2h-4.9ZM5.35 42.65V5.35h37.3v37.3ZM9 39h30V9H9Zm0 0V9v30Z"/></svg>

<svg xmlns="http://www.w3.org/2000/svg" height="48" width="48"><path d="M21.55 22.05V17.1H27.95V13.45H17.9V34.55H30.1V22.05ZM21.55 25.7H26.45V30.9H21.55ZM5.35 42.65V5.35H42.65V42.65ZM9 39H39V9H9ZM9 39V9V39Z"/></svg>
